X:1
T:There Is a Land Mine Eye Hath Seen
T:There Is a Land Mine Eye Hath Seen
T:Daniel Brink Towner, 1897
T:Arranged from Gurdon Robbins, 1843
T:Public Domain Courtesy of the Cyber Hymnal™
T:Public Domain Courtesy of the Cyber Hymnal™
C:Daniel Brink Towner, 1897
Z:Public Domain
Z:Courtesy of the Cyber Hymnal™
%%score ( 1 2 ) ( 3 4 )
L:1/8
Q:1/4=130
M:3/4
K:F
V:1 treble 
V:2 treble 
V:3 bass 
V:4 bass 
V:1
 C2 F2 A2 | c6 B2 A3 G | F6 | F2 B2 A2 | d6 c2 =B3 B | c6 | C2 F2 A2 | c6 B2 A3 G | F6 | c2 f2 c2 | %10
w: 1.~There is a|land mine eye hath|seen|In vi- sions|of en- rap- tured|thought,|So bright that|all which spread be-|tween|Is with its|
w: 2.~A land up-|on whose bliss- ful|shore|There rests no|sha- dow, falls no|stain;|There those who|meet shall part no|more,|And those long|
w: 3.~Its skies are|not like earth- ly|skies,|With vary- ing|blues of shade and|light;|It hath no|need of suns to|rise|To dis- si-|
w: 4.~There sweeps no|des- o- lat- ing|wind|A- cross the|calm, se- rene a-|bode.|The wan- derer|there a home may|find|With- in the|
 A2 F2 A6 G2 | F6 ||[M:6/4]"^Refrain" [EG]2 [EG]2 [FA]2 | [GB]4- [GB]6 [GB]2 [^FA]2 [GB]2 | %14
w: ra- diant glor- ies|fraught.|||
w: part- ed meet a-|gain.|Oh, land of|love, * of joy and|
w: pate the gloom of|night.|||
w: par- a- dise of|God.|||
 [Ac]4- [Ac]6 [Ac]2 [^G=B]2 [Ac]2 | [Bd]4- [Bd]6 f2 e2 d2 | (z2 c6) F2 [Ac]2 [^G=B]2 [Ac]2 | %17
w: |||
w: light, * Thy glor- ies|gild * earth’s dark- est|* night; Thy tran- quil|
w: |||
w: |||
 [FA]4- [FA]6 A2 ^G2 A2 | (z2 F6) [DF]2 [CE]2 [B,D]2 x2 | [A,C]4- [A,C]6 [CF]2 [CE]2 [CG]2 | %20
w: |||
w: * * shore, we, too,|* shall * see,|When * day shall break|
w: |||
w: |||
 [CF]4- [CF]6 |] %21
w: |
w: and *|
w: |
w: |
V:2
 x6 | x12 | x6 | x6 | x12 | x6 | x6 | x12 | x6 | x6 | x12 | x6 ||[M:6/4] x6 | x16 | x16 | x16 | %16
 c4- F2 F2 F2 x6 | x16 | (F4- C2 C2 C2 C2) x4 | x16 | x10 |] %21
V:3
 C,2 C,2 E,2 | G,6 F,2 E,3 D, | C,6 | C,2 F,2 E,2 | D,6 C,2 =B,,3 A,, | G,,6 | C,2 C,2 E,2 | %7
w: ~ ~ ~|~ ~ ~ ~|~|~ ~ ~|~ ~ ~ ~|~|~ ~ ~|
 G,6 F,2 E,3 D, | C,6 | C,2 C,2 C,2 | E,2 D,2 E,6 _D,2 | C,6 ||[M:6/4] z6 | %13
w: ~ ~ ~ ~|~|~ ~ ~|~ ~ ~ ~|~||
 z2 [C,C]2 [E,C]2 [G,C]2 [C,C]2 z6 | z2 [F,F]2 [A,F]2 [CF]2 [F,F]2 z6 | %15
w: Oh, land of love,|of joy and light,|
 z2 [B,,F]2 [D,F]2 [F,F]2 F2 [B,F]2 C2 B,2 | z2 A,6 z6 x2 | z2 [F,C]2 [A,C]2 C2 [F,C]2 C2 =B,2 C2 | %18
w: Thy glor- ies gild earth’s dark- est|night|dark- est night) Thy tran- quil shore,|
 z2 F,,2 A,6 z6 | z2 [F,,F,]2 [A,,F,]2 [C,F,]2 F,2 [F,A,]2 [C,G,]2 [C,B,]2 | %20
w: ~ ~|~ we, too, shall see, When day|
 [F,,F,A,]4- [F,,F,A,]6 |] %21
w: shall *|
V:4
 x6 | x12 | x6 | x6 | x12 | x6 | x6 | x12 | x6 | x6 | x12 | x6 ||[M:6/4] x6 | x16 | x16 | x16 | %16
w: ||||||||||||||||
 A,4- F,,2 A,,2 C,2 F,2 x4 | x6 C2 x8 | A,4- A,,2 C,2 F,2 x6 | x8 F,2 x6 | x10 |] %21
w: * * (earth’s * *|||||

